X: 1
T: Jackson's Reel
T: Jackson's #2
N: (sort of flute-friendly'ish)
R: reel
S: irishflute.podbean.com 2020-7-3
M: 4/4
L: 1/8
K: D
|: F |\
D2FD EDFE | DEFD EAcE | GE ~E2 GABd | ceAc dBAF |
D2FD EDFE | DEFD EFGE | ABce dBAG | F/2G/2F EG FDD :|
|: g |\
fd d2 ~d3f | edef edcB | A2cA BAcB | ABcA Bcde |
fd d2 ~d3f | edef edcB | ABde faea |1 fd d2 ~d3 :|2 fddc d/2d/2c dB ||
A3A B2AG | FAAF G/2F/2E F/2E/2D | ~E3F GFEG | Agec dBAF |
D2FD EDFE | DEFD EG ~G2 | ABce dBAG | FAEG FDAF |]

% Here's the uncut version: https://thesession.org/tunes/1665
